vendor/shopware/storefront/Resources/app/storefront/dist/assets/icon/default/warning.svg

<svg xmlns="http://www.w3.org/2000/svg" width="24" height="24" viewBox="0 0 24 24">
  <path fill="#758CA3" fill-rule="evenodd" d="M13.7744336,1.41237231 L23.4801932,20.0772945 C23.9897893,21.0572871 23.6084576,22.2648374 22.628465,22.7744336 C22.3434734,22.9226292 22.0269793,23 21.7057596,23 L2.29424045,23 C1.18967095,23 0.294240449,22.1045695 0.294240449,21 C0.294240449,20.6787802 0.371611225,20.3622861 0.519806846,20.0772945 L10.2255664,1.41237231 C10.7351626,0.432379694 11.9427129,0.0510480218 12.9227055,0.560644183 C13.2873945,0.750282476 13.5847953,1.04768329 13.7744336,1.41237231 Z M2.29424045,21 L21.7057596,21 L12,2.33507779 L2.29424045,21 Z M12,17 C12.5522847,17 13,17.4477153 13,18 C13,18.5522847 12.5522847,19 12,19 C11.4477153,19 11,18.5522847 11,18 C11,17.4477153 11.4477153,17 12,17 Z M13,15 C13,15.5522847 12.5522847,16 12,16 C11.4477153,16 11,15.5522847 11,15 L11,10 C11,9.44771525 11.4477153,9 12,9 C12.5522847,9 13,9.44771525 13,10 L13,15 Z"/>
</svg>

<svg xmlns="http://www.w3.org/2000/svg" width="24" height="24" viewBox="0 0 24 24"><path fill="#758CA3" fill-rule="evenodd" d="m13.7744 1.4124 9.7058 18.6649c.5096.98.1283 2.1875-.8517 2.6971a2 2 0 0 1-.9227.2256H2.2942c-1.1045 0-2-.8954-2-2a2 2 0 0 1 .2256-.9227l9.7058-18.665c.5096-.98 1.7171-1.3613 2.6971-.8517a2 2 0 0 1 .8517.8518zM2.2942 21h19.4116L12 2.335 2.2942 21zM12 17c.5523 0 1 .4477 1 1s-.4477 1-1 1-1-.4477-1-1 .4477-1 1-1zm1-2c0 .5523-.4477 1-1 1s-1-.4477-1-1v-5c0-.5523.4477-1 1-1s1 .4477 1 1v5z"/></svg>
